X:1
T:Title
%%score { ( 1 3 ) | ( 2 4 ) }
L:1/8
M:4/4
K:D
V:1 treble nm="Grand Piano"
V:3 treble 
V:2 bass 
V:4 bass 
V:1
 z4 z2[Q:1/4=100] [FA]2 | [FA]2 [DF]>[EG] [FA]2 FE | D2 D2 [Fd]2 [Ac][GB] | %3
 [FA]2 [FA]>[GB] [FA]2 [EG][DF] |[M:9/8] [DF]2 [B,E] [B,D] [CE]2- [CE][CA][EG] | %5
[M:4/4] F2 F>E D2 F[EG] | [FA]2 [Fd]2 [Fd]3 [FA] | B2 d>B [DFA]2 [A,D][B,DG] | %8
[M:3/4] [DF]2[K:bass] [G,CE]>[G,CE] [F,D]2 |[M:1/4] z2 |[M:4/4][K:treble] c6 z2 | [Fd]4 [DFA]2 A2 | %12
 B6 z2 |[M:3/4] [DFA]6 |[M:1/4] A>A |[M:4/4] d6 z2 | e2 d4 B2 | A3 A B2 [Gc]2 |[M:3/4] [Fd]6 |] %19
V:2
 z4 z2 [D,D]2 | [D,D]2 [D,A,]>[D,A,] [D,D]2 [D,A,D][D,G,D] | [D,F,]2 [D,F,]2 [D,A,]2 [D,D][D,D] | %3
 [D,D]2 [D,D]>[D,D] [D,D]2 [C,A,][D,A,] | %4
[M:9/8] [B,,B,]2 [E,^G,] [E,G,] [A,,A,]2- [A,,A,][A,,A,][A,,A,] | %5
[M:4/4] [D,A,D]2 [D,A,D]>[D,G,C] [D,F,]2 [D,A,D][D,A,] | [D,A,]2 [D,A,]2 [D,A,]3 [D,D] | %7
 [G,DG]2 [G,B,F]>[G,DG][K:bass] D,2 F,G, |[M:3/4] A,2 A,,>A,, D,2 |[M:1/4][K:treble] A2 | %10
[M:4/4] G6 z2 | [D,A,]4 D,2[K:treble] F2 | G6[K:bass] z2 |[M:3/4] D,6 |[M:1/4][K:treble] F>F | %15
[M:4/4] F6[K:bass] z2 | [G,B,G]2 [G,B,G]4 [G,DG]2 | [A,DF]3 [A,DF] [A,CG]2[K:bass] [A,,A,]2 | %18
[M:3/4] [D,A,]6 |] %19
V:3
 x8 | x8 | x8 | x8 |[M:9/8] x9 |[M:4/4] x8 | x8 | x8 |[M:3/4] x2[K:bass] x4 |[M:1/4] x2 | %10
[M:4/4][K:treble] z2 E2 E>c B>c | x8 | z2 D2 D>[DBd] [DAc]>[DGB] |[M:3/4] x6 |[M:1/4] x2 | %15
[M:4/4] z2 A,>A, A,>[Fd] [Gc]>[Ad] | x8 | x8 |[M:3/4] x6 |] %19
V:4
 x8 | x8 | x8 | x8 |[M:9/8] x9 |[M:4/4] x8 | x8 | x4[K:bass] x4 |[M:3/4] x6 |[M:1/4][K:treble] x2 | %10
[M:4/4] z2 A,2 A,>[A,EG] [A,EG]>[A,G] | x6[K:treble] x2 | z2 G,2 G,>G,[K:bass] G,>G, |[M:3/4] x6 | %14
[M:1/4][K:treble] x2 |[M:4/4] z2[K:bass] D,>D, D,>[D,A,] [E,A,]>[F,A,] | x8 | x6[K:bass] x2 | %18
[M:3/4] x6 |] %19

